packages/ffe-icons/icons/open/400/sm/two_pager.svg

<svg xmlns="http://www.w3.org/2000/svg" height="20" viewBox="0 -960 960 960" width="20"><path d="M168-144q-29.7 0-50.85-21.15Q96-186.3 96-216v-480q0-29.7 21.15-50.85Q138.3-768 168-768h624q29.7 0 50.85 21.15Q864-725.7 864-696v480q0 29.7-21.15 50.85Q821.7-144 792-144H168Zm0-72h276v-480H168v480Zm348 0h276v-480H516v480Zm-264.068-72h107.797Q375-288 385.5-298.289q10.5-10.29 10.5-25.5Q396-339 385.669-349.5q-10.33-10.5-25.601-10.5H252.271Q237-360 226.5-349.711q-10.5 10.29-10.5 25.5Q216-309 226.331-298.5q10.33 10.5 25.601 10.5Zm0-132h107.797Q375-420 385.5-430.289q10.5-10.29 10.5-25.5Q396-471 385.669-481.5q-10.33-10.5-25.601-10.5H252.271Q237-492 226.5-481.711q-10.5 10.29-10.5 25.5Q216-441 226.331-430.5q10.33 10.5 25.601 10.5Zm0-132h107.797Q375-552 385.5-562.289q10.5-10.29 10.5-25.5Q396-603 385.669-613.5q-10.33-10.5-25.601-10.5H252.271Q237-624 226.5-613.711q-10.5 10.29-10.5 25.5Q216-573 226.331-562.5q10.33 10.5 25.601 10.5Zm348 265h107.797Q723-287 733.5-297.289q10.5-10.29 10.5-25.5Q744-338 733.669-348.5q-10.33-10.5-25.601-10.5H600.271Q585-359 574.5-348.711q-10.5 10.29-10.5 25.5Q564-308 574.331-297.5q10.33 10.5 25.601 10.5Zm0-132h107.797Q723-419 733.5-429.289q10.5-10.29 10.5-25.5Q744-470 733.669-480.5q-10.33-10.5-25.601-10.5H600.271Q585-491 574.5-480.711q-10.5 10.29-10.5 25.5Q564-440 574.331-429.5q10.33 10.5 25.601 10.5Zm0-132h107.797Q723-551 733.5-561.289q10.5-10.29 10.5-25.5Q744-602 733.669-612.5q-10.33-10.5-25.601-10.5H600.271Q585-623 574.5-612.711q-10.5 10.29-10.5 25.5Q564-572 574.331-561.5q10.33 10.5 25.601 10.5ZM444-216v-480 480Z"/></svg>

<svg xmlns="http://www.w3.org/2000/svg" height="20" viewBox="0 -960 960 960" width="20"><path d="M168-144q-29.7 0-50.85-21.15Q96-186.3 96-216v-480q0-29.7 21.15-50.85Q138.3-768 168-768h624q29.7 0 50.85 21.15Q864-725.7 864-696v480q0 29.7-21.15 50.85Q821.7-144 792-144H168Zm0-72h276v-480H168v480Zm348 0h276v-480H516v480Zm-264.07-72h107.8q15.27 0 25.77-10.29t10.5-25.5q0-15.21-10.33-25.71t-25.6-10.5h-107.8q-15.27 0-25.77 10.29t-10.5 25.5q0 15.21 10.33 25.71t25.6 10.5Zm0-132h107.8q15.27 0 25.77-10.29t10.5-25.5q0-15.21-10.33-25.71t-25.6-10.5h-107.8q-15.27 0-25.77 10.29t-10.5 25.5q0 15.21 10.33 25.71t25.6 10.5Zm0-132h107.8q15.27 0 25.77-10.29t10.5-25.5q0-15.21-10.33-25.71t-25.6-10.5h-107.8q-15.27 0-25.77 10.29t-10.5 25.5q0 15.21 10.33 25.71t25.6 10.5Zm348 265h107.8q15.27 0 25.77-10.29t10.5-25.5q0-15.21-10.33-25.71t-25.6-10.5h-107.8q-15.27 0-25.77 10.29t-10.5 25.5q0 15.21 10.33 25.71t25.6 10.5Zm0-132h107.8q15.27 0 25.77-10.29t10.5-25.5q0-15.21-10.33-25.71t-25.6-10.5h-107.8q-15.27 0-25.77 10.29t-10.5 25.5q0 15.21 10.33 25.71t25.6 10.5Zm0-132h107.8q15.27 0 25.77-10.29t10.5-25.5q0-15.21-10.33-25.71t-25.6-10.5h-107.8q-15.27 0-25.77 10.29t-10.5 25.5q0 15.21 10.33 25.71t25.6 10.5ZM444-216v-480 480Z"/></svg>
